X: 20
M: none
L: 1/8
K: D
vd(uB |:\
|: d)efg a2f2 | ve(udef) g2(fe) | defg a2f2 | ve(udcB) (v[A2D2][AD])[AD] |
defg a2f2 | edef g2-g(ue | fa)vf(ud ef)veuc | vA2[f2d2] [f3d3]A :|
mony different wyes o' im even in Shetland.  Dis is da wye me
grandfaider played him.  Although he's no a Shetland t\"un, he wis

up, at da auld fiddlers \"osed so dat du can git da right wye o' im.
da steps o' da Shetland Reel.  Da fiddler sometimes wid play dem
can draw bass while da idder eens plays him, as dey \"osed ta dae
in Bressay.


